!!!OTL: Muede kehrt der Wanderer zurueck
!!!ARE: Europa, Mitteleuropa, Deutschland, Rheinland
!!!SCT: E0672A
!!!YEM: Copyright 1995, estate of Helmut Schaffrath.
**kern
*ICvox
*Ivox
*M4/4
*k[f#]
*G:
{8d
8d
=1
4.b
8a
8g
8f#
8g
8b
=2
2d
4r}
{8d
8f#
=3
4.a
8g
8f#
8a
8dd
8cc
=4
2b
4r}
{8g
8a
=5
4.b
8dd
8cc
8b
8a
8g
=6
2e
4r}
{8g
8e
=7
4.d
8g
8f#
8a
8.cc
16b
=8
2g
4r}
==
!!!AGN: Liebes - Lied
!!!ONB: ESAC (Essen Associative Code) Database: ERK2
!!!AMT: simple quadruple
!!!AIN: vox
!!!EED: Helmut Schaffrath
!!!EEV: 1.0
*-
